svgs/regular/page.svg

<svg xmlns="http://www.w3.org/2000/svg" viewBox="0 0 384 512"><!--! Font Awesome Pro 6.2.0 by @fontawesome - https://fontawesome.com License - https://fontawesome.com/license (Commercial License) Copyright 2022 Fonticons, Inc. --><path d="M320 512H64C28.65 512 0 483.3 0 448V64C0 28.65 28.65 0 64 0H245.5C262.5 0 278.7 6.743 290.7 18.75L365.3 93.26C377.3 105.3 384 121.5 384 138.5V448C384 483.3 355.3 512 320 512zM64 464H320C328.8 464 336 456.8 336 448V138.5C336 134.3 334.3 130.2 331.3 127.2L256.8 52.69C253.8 49.69 249.7 48 245.5 48H64C55.16 48 48 55.16 48 64V448C48 456.8 55.16 464 64 464V464z"/></svg>

<svg xmlns="http://www.w3.org/2000/svg" viewBox="0 0 384 512"><!--! Font Awesome Pro 6.3.0 by @fontawesome - https://fontawesome.com License - https://fontawesome.com/license (Commercial License) Copyright 2023 Fonticons, Inc. --><path d="M64 464H320c8.8 0 16-7.2 16-16V138.5c0-4.2-1.7-8.3-4.7-11.3L256.8 52.7c-3-3-7.1-4.7-11.3-4.7H64c-8.8 0-16 7.2-16 16V448c0 8.8 7.2 16 16 16zm256 48H64c-35.3 0-64-28.7-64-64V64C0 28.7 28.7 0 64 0H245.5c17 0 33.3 6.7 45.3 18.7l74.5 74.5c12 12 18.7 28.3 18.7 45.3V448c0 35.3-28.7 64-64 64z"/></svg>
